client/public/img/game/shared/loot/762mm.svg

<?xml version="1.0" encoding="UTF-8" standalone="no"?>
<!-- Created with Inkscape (http://www.inkscape.org/) -->

<svg
   width="72"
   height="49.846001"
   viewBox="0 0 19.05 13.188422"
   version="1.1"
   id="svg5"
   xmlns="http://www.w3.org/2000/svg"
   xmlns:svg="http://www.w3.org/2000/svg">
  <defs
     id="defs2" />
  <g
     id="layer1">
    <rect
       style="fill:#1f55cc;fill-opacity:1;stroke:#13337a;stroke-width:0.711814;stroke-linecap:round;stroke-linejoin:round;stroke-miterlimit:10;stroke-opacity:1"
       id="rect846"
       width="18.338186"
       height="12.476645"
       x="0.35590726"
       y="0.35590726"
       ry="1.0990382"
       rx="1.0990382" />
    <g
       aria-label="7.62"
       id="text6858"
       style="font-size:6.83341px;line-height:1.25;font-family:Jura;-inkscape-font-specification:Jura;letter-spacing:0px;word-spacing:0px;fill:#0f2a66;stroke-width:0.170835">
      <path
         d="M 2.9307692,4.202535 H 6.6208105 V 5.1592124 L 5.0491262,8.9859219 H 3.6824443 L 5.3224626,5.1592124 H 2.9307692 Z"
         style="font-family:'Russo One';-inkscape-font-specification:'Russo One'"
         id="path839" />
      <path
         d="M 6.5524649,7.9609104 H 7.7824787 V 8.9859219 H 6.5524649 Z"
         style="font-family:'Russo One';-inkscape-font-specification:'Russo One'"
         id="path841" />
      <path
         d="m 9.5591637,4.1342009 q 0.9361773,0 2.2550253,0.1366682 v 0.9225103 q -0.375838,-0.0205 -0.642341,-0.034167 -0.259669,-0.0205 -0.430504,-0.027334 -0.164002,-0.013667 -0.328004,-0.027334 -0.273336,-0.013667 -0.5056724,-0.013667 -0.416838,0 -0.416838,0.3416705 V 6.0475557 Q 10.15367,5.9108875 10.652509,5.9108875 h 0.478339 q 0.464672,0 0.744842,0.2801698 0.280169,0.2801698 0.280169,0.7448416 v 0.8883433 q 0,0.6218403 -0.314336,0.9293437 Q 11.527186,9.054256 10.857512,9.054256 H 9.5591637 q -0.6696742,0 -0.984011,-0.3006701 Q 8.2608158,8.4460825 8.2608158,7.8242422 V 5.4325488 q 0,-0.6696742 0.3143369,-0.984011 0.3143368,-0.3143369 0.984011,-0.3143369 z m 0.7516753,2.7333639 q -0.25967,0 -0.4783389,0.027334 -0.2118357,0.027334 -0.3416705,0.041 V 7.687574 q 0,0.4100046 0.4100046,0.4100046 h 0.6150068 q 0.410005,0 0.410005,-0.4100046 V 7.1067342 q 0,-0.1025012 -0.06833,-0.1708353 -0.06833,-0.068334 -0.170836,-0.068334 z"
         style="font-family:'Russo One';-inkscape-font-specification:'Russo One'"
         id="path843" />
      <path
         d="m 16.119231,5.7058852 q 0,0.5808398 -0.492006,1.0045112 -0.150335,0.1298348 -0.328003,0.2596696 l -1.469184,1.0591785 h 2.289193 V 8.9859219 H 12.429189 V 7.687574 L 14.889217,5.9108875 V 5.569217 q 0,-0.4100046 -0.410005,-0.4100046 H 12.565858 V 4.202535 h 2.186691 q 0.717508,0 1.038678,0.3280037 0.328004,0.3211702 0.328004,1.0386783 z"
         style="font-family:'Russo One';-inkscape-font-specification:'Russo One'"
         id="path845" />
    </g>
    <circle
       style="fill:none;fill-opacity:1;stroke:#13337a;stroke-width:0.366346;stroke-linecap:round;stroke-linejoin:round;stroke-miterlimit:4;stroke-dasharray:none;stroke-opacity:1"
       id="path9697"
       cx="16.851919"
       cy="2.1980762"
       r="0.73269218" />
    <circle
       style="fill:none;fill-opacity:1;stroke:#13337a;stroke-width:0.366346;stroke-linecap:round;stroke-linejoin:round;stroke-miterlimit:4;stroke-dasharray:none;stroke-opacity:1"
       id="path9697-6"
       cx="16.851919"
       cy="10.990382"
       r="0.73269218" />
    <circle
       style="fill:none;fill-opacity:1;stroke:#13337a;stroke-width:0.366346;stroke-linecap:round;stroke-linejoin:round;stroke-miterlimit:4;stroke-dasharray:none;stroke-opacity:1"
       id="path9697-7"
       cx="2.1980762"
       cy="10.990382"
       r="0.73269218" />
    <circle
       style="fill:none;fill-opacity:1;stroke:#13337a;stroke-width:0.366346;stroke-linecap:round;stroke-linejoin:round;stroke-miterlimit:4;stroke-dasharray:none;stroke-opacity:1"
       id="path9697-5"
       cx="2.1980762"
       cy="2.1980762"
       r="0.73269218" />
  </g>
</svg>

<svg xmlns="http://www.w3.org/2000/svg" width="72" height="49.846" viewBox="0 0 19.05 13.188"><rect width="18.338" height="12.477" x=".356" y=".356" rx="1.099" ry="1.099" style="fill:#1f55cc;fill-opacity:1;stroke:#13337a;stroke-width:.711814;stroke-linecap:round;stroke-linejoin:round;stroke-miterlimit:10;stroke-opacity:1"/><g aria-label="7.62" style="font-size:6.83341px;line-height:1.25;font-family:Jura;-inkscape-font-specification:Jura;letter-spacing:0;word-spacing:0;fill:#0f2a66;stroke-width:.170835"><path d="M2.93 4.203h3.69v.956L5.05 8.986H3.681l1.64-3.827H2.931ZM6.552 7.96h1.23v1.026h-1.23ZM9.56 4.134q.935 0 2.254.137v.922l-.642-.034q-.26-.02-.43-.027l-.329-.027q-.273-.014-.505-.014-.417 0-.417.342v.615q.663-.137 1.162-.137h.478q.465 0 .745.28t.28.745v.888q0 .622-.314.93-.315.3-.984.3H9.559q-.67 0-.984-.3-.314-.308-.314-.93V5.433q0-.67.314-.984.314-.315.984-.315m.75 2.734q-.259 0-.477.027-.212.027-.342.04v.753q0 .41.41.41h.615q.41 0 .41-.41v-.581q0-.103-.068-.171-.069-.068-.171-.068zM16.12 5.706q0 .58-.493 1.004-.15.13-.328.26L13.83 8.03h2.29v.956h-3.69V7.688l2.46-1.777v-.342q0-.41-.41-.41h-1.914v-.956h2.187q.717 0 1.038.328.328.32.328 1.038z" style="font-family:&quot;Russo One&quot;;-inkscape-font-specification:&quot;Russo One&quot;"/></g><circle cx="16.852" cy="2.198" r=".733" style="fill:none;fill-opacity:1;stroke:#13337a;stroke-width:.366346;stroke-linecap:round;stroke-linejoin:round;stroke-miterlimit:4;stroke-dasharray:none;stroke-opacity:1"/><circle cx="16.852" cy="10.99" r=".733" style="fill:none;fill-opacity:1;stroke:#13337a;stroke-width:.366346;stroke-linecap:round;stroke-linejoin:round;stroke-miterlimit:4;stroke-dasharray:none;stroke-opacity:1"/><circle cx="2.198" cy="10.99" r=".733" style="fill:none;fill-opacity:1;stroke:#13337a;stroke-width:.366346;stroke-linecap:round;stroke-linejoin:round;stroke-miterlimit:4;stroke-dasharray:none;stroke-opacity:1"/><circle cx="2.198" cy="2.198" r=".733" style="fill:none;fill-opacity:1;stroke:#13337a;stroke-width:.366346;stroke-linecap:round;stroke-linejoin:round;stroke-miterlimit:4;stroke-dasharray:none;stroke-opacity:1"/></svg>
